X:204
T:Tachyon Anomaly
M:6/8
L:1/8
C:© Paul Gitlitz Decmber 2011
N:This tune started out as a Waltz and morphed into a jig thus the time shifting title.
K:D
"D"A,DF "Em"EDB,|"D"A,DF "G"G2B|"D"AFD "G"G2F|"A"E3- E2B,|!
"D"A,DF "G"GAF|"A7"Gce "D"dAF|"Bm"B2d "D"AFD|"A7"GEC "D"D3:|!
|:"Bm"~B3 Bcd|fed "A"edc|"Bm"~B3 Bcd|FGF "A"F3|!
"Bm"~B3 Bcd|fed "Em"efg|"D"aba afd|"A7"gec "D"d3:|]
